icons/pushpin-off.svg

<svg width="24" height="24" viewBox="0 0 24 24" fill="none" xmlns="http://www.w3.org/2000/svg">
<g clip-path="url(#clip0)">
<path fill-rule="evenodd" clip-rule="evenodd" d="M0.292893 0.292893C0.683417 -0.0976311 1.31658 -0.0976311 1.70711 0.292893L23.7071 22.2929C24.0976 22.6834 24.0976 23.3166 23.7071 23.7071C23.3166 24.0976 22.6834 24.0976 22.2929 23.7071L15.5318 16.946L14.9686 18.4479C14.9185 18.5816 14.8403 18.7029 14.7394 18.8039L12.9974 20.5458C12.6069 20.9363 11.9737 20.9363 11.5832 20.5458L8.22581 17.1884L3.70711 21.7071C3.31658 22.0976 2.68342 22.0976 2.29289 21.7071C1.90237 21.3166 1.90237 20.6834 2.29289 20.2929L6.81159 15.7742L3.45418 12.4168C3.26665 12.2292 3.16129 11.9749 3.16129 11.7097C3.16129 11.4445 3.26665 11.1901 3.45418 11.0026L5.19612 9.26064C5.29706 9.15969 5.41844 9.08154 5.5521 9.03141L7.05399 8.4682L0.292893 1.70711C-0.0976311 1.31658 -0.0976311 0.683417 0.292893 0.292893ZM8.60745 10.0217L6.45717 10.828L5.5755 11.7097L12.2903 18.4245L13.172 17.5428L13.9783 15.3926L8.60745 10.0217ZM13.9058 2.29289C14.2963 1.90237 14.9295 1.90237 15.32 2.29289L21.7071 8.67999C22.0976 9.07051 22.0976 9.70368 21.7071 10.0942C21.3597 10.4416 20.8204 10.48 20.4306 10.2094L17.82 12.82C17.4295 13.2105 16.7963 13.2105 16.4058 12.82C16.0153 12.4295 16.0153 11.7963 16.4058 11.4058L19.0051 8.80645L15.1935 4.99486L12.5942 7.5942C12.2037 7.98473 11.5705 7.98473 11.18 7.5942C10.7895 7.20368 10.7895 6.57051 11.18 6.17999L13.7906 3.56937C13.52 3.17957 13.5584 2.64025 13.9058 2.29289Z" fill="black"/>
</g>
<defs>
<clipPath id="clip0">
<rect width="24" height="24" fill="white"/>
</clipPath>
</defs>
</svg>

<svg
  width="24"
  height="24"
  viewBox="0 0 24 24"
  xmlns="http://www.w3.org/2000/svg"
>
  <g clip-path="url(#a)">
    <path
      fill-rule="evenodd"
      clip-rule="evenodd"
      d="M.293.293a1 1 0 0 1 1.414 0l22 22a1 1 0 0 1-1.414 1.414l-6.761-6.761-.563 1.502a1 1 0 0 1-.23.356l-1.742 1.742a1 1 0 0 1-1.414 0l-3.357-3.358-4.519 4.52a1 1 0 0 1-1.414-1.415l4.519-4.519-3.358-3.357a1 1 0 0 1 0-1.414L5.196 9.26a1 1 0 0 1 .356-.23l1.502-.563-6.761-6.76a1 1 0 0 1 0-1.415zm8.314 9.729l-2.15.806-.881.882 6.714 6.714.882-.881.806-2.15-5.37-5.371zm5.299-7.73a1 1 0 0 1 1.414 0l6.387 6.388a1 1 0 0 1-1.276 1.53l-2.611 2.61a1 1 0 0 1-1.414-1.414l2.6-2.6-3.813-3.811-2.599 2.6A1 1 0 1 1 11.18 6.18l2.61-2.61a1 1 0 0 1 .116-1.277z"
    />
  </g>
  <defs>
    <clipPath id="a">
      <rect width="24" height="24" />
    </clipPath>
  </defs>
</svg>
